packages/foundations/assets/icons/functional/images/business & payment/shopping_basket_disabled_32.svg

<svg width="32" height="32" viewBox="0 0 32 32" fill="none" xmlns="http://www.w3.org/2000/svg">
<g clip-path="url(#clip0_184_122)">
<path fill-rule="evenodd" clip-rule="evenodd" d="M16.0214 2.49384C19.2014 2.49384 21.9364 4.35384 23.2204 7.05684L26.9894 3.28684C27.1769 3.09936 27.4312 2.99405 27.6964 2.99405C27.9615 2.99405 28.2158 3.09936 28.4034 3.28684C28.7634 3.64684 28.8214 4.29384 28.4034 4.70084C20.2385 12.8693 12.0719 21.036 3.90337 29.2008C3.81112 29.2963 3.70078 29.3725 3.57877 29.4249C3.45677 29.4773 3.32555 29.5049 3.19277 29.5061C3.05999 29.5072 2.92831 29.4819 2.80542 29.4317C2.68252 29.3814 2.57087 29.3071 2.47698 29.2132C2.38308 29.1193 2.30883 29.0077 2.25855 28.8848C2.20827 28.7619 2.18297 28.6302 2.18412 28.4974C2.18527 28.3647 2.21286 28.2334 2.26527 28.1114C2.31768 27.9894 2.39386 27.8791 2.48937 27.7868C3.20937 27.0628 3.92937 26.3408 4.65337 25.6208L2.22837 12.8868C2.01537 11.6968 2.87137 10.5348 4.19837 10.5348C5.48137 10.5328 6.76237 10.5328 8.04437 10.5348C8.04437 6.11684 11.6044 2.49384 16.0214 2.49384ZM25.3714 10.5338H27.8124C28.0931 10.5325 28.3709 10.5904 28.6277 10.7039C28.8845 10.8173 29.1144 10.9837 29.3024 11.1921C29.4905 11.4005 29.6324 11.6463 29.7189 11.9134C29.8054 12.1804 29.8345 12.4627 29.8044 12.7418L29.7834 12.8868L27.3034 26.0758C27.0614 27.3828 26.0034 28.4278 24.7164 28.5158L24.5394 28.5228H7.69537C7.59537 28.5228 7.49537 28.5178 7.39837 28.5078L9.38637 26.5198H24.3804C24.8174 26.5198 25.2004 26.2268 25.3354 25.8098L25.3654 25.6938L27.8124 12.5048H23.4004L25.3714 10.5338ZM17.7704 12.5038L4.19937 12.5048L6.36837 23.9058L17.7704 12.5038ZM16.0214 4.49584C12.7914 4.49584 10.1684 7.07584 10.0514 10.3078L10.0474 10.5348L19.7404 10.5338L21.6794 8.59684C20.8784 6.22584 18.6514 4.49584 16.0214 4.49584Z" fill="#1A1C1F"/>
</g>
<defs>
<clipPath id="clip0_184_122">
<rect width="32" height="32" fill="white"/>
</clipPath>
</defs>
</svg>

<svg xmlns="http://www.w3.org/2000/svg" width="32" height="32" fill="none"><g clip-path="url(#a)"><path fill="#1A1C1F" fill-rule="evenodd" d="M16.021 2.494c3.18 0 5.915 1.86 7.2 4.563l3.768-3.77a1 1 0 0 1 1.414 0c.36.36.418 1.007 0 1.414a77630 77630 0 0 1-24.5 24.5 1 1 0 1 1-1.414-1.414Q3.568 26.7 4.653 25.62L2.228 12.887c-.213-1.19.643-2.352 1.97-2.352q1.924-.003 3.846 0c0-4.418 3.56-8.041 7.977-8.041m9.35 8.04h2.441a1.994 1.994 0 0 1 1.992 2.208l-.02.145-2.48 13.189c-.243 1.307-1.3 2.352-2.588 2.44l-.177.007H7.695q-.15 0-.297-.015l1.988-1.988H24.38c.437 0 .82-.293.955-.71l.03-.116 2.447-13.19H23.4zm-7.6 1.97H4.198l2.17 11.402zm-1.75-8.008c-3.23 0-5.853 2.58-5.97 5.812l-.004.227 9.693-.001 1.94-1.937c-.802-2.371-3.029-4.101-5.659-4.101" clip-rule="evenodd"/></g><defs><clipPath id="a"><path fill="#fff" d="M0 0h32v32H0z"/></clipPath></defs></svg>
